X: 122
T: Jim McCormick's
M: 4/4
L: 1/8
R: Reel
K: G
gB B/d/B gbaf|gB B/d/B dBAB|gB B/d/B gbag|fdeB dBAB|
gB B/d/B gbaf|gB B/d/B dBAB|g2 gf gbag|fdeB dBAB||
GB B/d/B GBAB|GB B/d/B dBAB|GB B/d/B G2 e/f/g|fdeB dBAB|
GB B/d/B GBAB|GB B/d/B dBAB|g2 gf gbag|fdeB dBAB||
a2fd adfd|a2 fd edBd|a2fd adfd|e/f/g fd edBd|
a2fd adfd|a2 fd edBd|g2 gf gbag|fdeB dBAB||
g2gf gdBd|gfgd BABd|g2 gf gbag|fdeB dBAB|
g2gf gdBd|gfgd BABd|g2 gf gbag|fdeB dBAB||
